X:1
T:Erin's Green Shores
M:3/4
L:1/4
K:G
 D/2F/2| A2 A/2A/2| B A3/2 F/2| E D2-| D2 A| d2 d/2d/2| d B B| A3-|\
 A2 A| d2 d/2d/2| A B3/2 F/2| E D2-| D2 D/2F/2| A2 A| A F3/2 E/2| D3-|\
 D2||
